X: 26795
T: Miller's Daughter
R: reel
M: 4/4
K: Gmajor
|:d(B B2) GBdB|eBdB A2 ge|d(B B2) GBdB|cBAc BGGB|
d(B B2) GBdB|eBdB A^GAB|GccB cdeg|1 fdef g2 ge:|2 fdef g2 ef||
|:g2 fg e(B B2)|gedB A2 Bd|g2 fg edBd|cdef gfge|
d(g g2) afge|dBGB A^GAB|GccB cdeg|1 fdef g2 ef:|2 fdef g2 ge||

